src/entities/Check/_i/pending.svg

<svg width="24" height="24" viewBox="0 0 24 24" fill="none" xmlns="http://www.w3.org/2000/svg">
<path d="M12 1.00049C18.0755 1.00049 23 5.92499 23 12.0005C23 18.076 18.0755 23.0005 12 23.0005C5.9245 23.0005 1 18.076 1 12.0005C1 5.92499 5.9245 1.00049 12 1.00049ZM12 3.00049C7.02907 3.00049 3 7.02956 3 12.0005C3 16.9714 7.02907 21.0005 12 21.0005C16.9709 21.0005 21 16.9714 21 12.0005C21 7.02956 16.9709 3.00049 12 3.00049ZM13 11.5864L15.707 14.2935L14.293 15.7075L11 12.4146V6.50049H13V11.5864Z" fill="black"/>
</svg>

<svg xmlns="http://www.w3.org/2000/svg" width="24" height="24" fill="none" viewBox="0 0 24 24"><path fill="#000" d="M12 1c6.076 0 11 4.925 11 11s-4.924 11-11 11S1 18.077 1 12 5.925 1 12 1m0 2a9 9 0 0 0-9 9 9 9 0 0 0 9 9 9 9 0 0 0 9-9 9 9 0 0 0-9-9m1 8.586 2.707 2.707-1.414 1.415L11 12.415V6.5h2z"/></svg>
